X:1
T:Air on the G String
C:Johann Sebastian Bach
M:4/4
L:1/8
Q:1/4=46
K:D
d6 c2 | B3 A G4 | F3 G A2 B2 | A6 G2 | F3 E D3 E | F2 G2 A4 | G3 F E3 D | c4 d4 |]
